X:426
T:Grimsditch Hall
C:Roy Hordley, 1986
L:1/4
M:2/2
R:Reel
S:Colin Hume's website,  colinhume.com  - chords can also be printed below the stave.
Q:1/2=110
K:G
P:A
|: "G"BB dg | "C"ed/c/ "D7"BA | "G"GG "A7"AG | "D"F3/E/ "D7"Dz |\
"G"BB dg | "D7"fe/f/ "G"g2 | "Am"e/d/c/B/ "D7"d/c/B/A/ | "C"G"D7"F "G"G2 :|
P:B
|: "G"DD/D/ GG/G/ | "C"EE/E/ "D7"AA/A/ | "Em"A/B/A/G/ "Am"A/G/A/B/ | "D7"d3z |\
"Em"e/f/e/d/ "Bm"Bd | "Em"e/f/e/d/ "Am"c/B/A/G/ | "D7"DG "G"G/A/B/G/ | "D7"AF "G"G2 :|

